_includes/icons/color-lips.svg

<svg fill="#666" height="50" viewBox="0 0 48 48" width="50" xmlns="http://www.w3.org/2000/svg"><path d="m29 13c-2 0-5 2-5 2s-3.007812-2-5-2c-5.023437 0-14.019531 5.472656-19 6.5 4.996094 2.019531 11.851563 14.5 24 14.5 12.148438 0 19.019531-12.484375 24-14.5-4.96875-.960937-14.003906-6.5-19-6.5z" fill="#ff3d00"/><path d="m48 19.5s-11.851562 4-24 4c-12.148437 0-24-4-24-4 4.996094 2.019531 11.851563 14.5 24 14.5 12.148438 0 19.019531-12.484375 24-14.5z" fill="#dd2c00"/><path d="m10 22c6.207031 1.996094 14 5 14 5s7.542969-2.976562 14-5c-2.855469.382813-10.914062 1.5-14 1.5-2.820312 0-11.355469-1.167969-14-1.5z" fill="#af1900"/><g fill="#ffccbc"><path d="m20 16c0 .550781-.449219 1-1 1s-1-.449219-1-1 .449219-1 1-1 1 .449219 1 1z"/><path d="m18.695313 16.953125c-.160157-.089844-.5625-.1875-.886719-.234375-.34375-.054687-.707031-.078125-1.074219-.089844-.730469-.019531-1.488281.046875-2.242187.15625-1.511719.234375-3.019532.664063-4.492188 1.214844 1.324219-.847656 2.726563-1.601562 4.234375-2.179687.757813-.285157 1.542969-.527344 2.367188-.683594.410156-.082031.832031-.140625 1.269531-.167969.453125-.015625.839844-.042969 1.433594.078125z"/></g></svg>

<svg xmlns="http://www.w3.org/2000/svg" viewBox="0 0 48 48" width="50" height="50" fill="#666"><path d="M 29 13 C 27 13 24 15 24 15 C 24 15 20.992188 13 19 13 C 13.976563 13 4.980469 18.472656 0 19.5 C 4.996094 21.519531 11.851563 34 24 34 C 36.148438 34 43.019531 21.515625 48 19.5 C 43.03125 18.539063 33.996094 13 29 13 Z" fill="#ff3d00"/><path d="M 48 19.5 C 48 19.5 36.148438 23.5 24 23.5 C 11.851563 23.5 0 19.5 0 19.5 C 4.996094 21.519531 11.851563 34 24 34 C 36.148438 34 43.019531 21.515625 48 19.5 Z" fill="#dd2c00"/><path d="M 10 22 C 16.207031 23.996094 24 27 24 27 C 24 27 31.542969 24.023438 38 22 C 35.144531 22.382813 27.085938 23.5 24 23.5 C 21.179688 23.5 12.644531 22.332031 10 22 Z" fill="#af1900"/><path d="M 20 16 C 20 16.550781 19.550781 17 19 17 C 18.449219 17 18 16.550781 18 16 C 18 15.449219 18.449219 15 19 15 C 19.550781 15 20 15.449219 20 16 Z" fill="#ffccbc"/><path d="M 18.695313 16.953125 C 18.535156 16.863281 18.132813 16.765625 17.808594 16.71875 C 17.464844 16.664063 17.101563 16.640625 16.734375 16.628906 C 16.003906 16.609375 15.246094 16.675781 14.492188 16.785156 C 12.980469 17.019531 11.472656 17.449219 10 18 C 11.324219 17.152344 12.726563 16.398438 14.234375 15.820313 C 14.992188 15.535156 15.777344 15.292969 16.601563 15.136719 C 17.011719 15.054688 17.433594 14.996094 17.871094 14.96875 C 18.324219 14.953125 18.710938 14.925781 19.304688 15.046875 Z" fill="#ffccbc"/></svg>
